packages/core/src/svg/icon-menu.svg

<?xml version="1.0" encoding="UTF-8"?>
<svg xmlns="http://www.w3.org/2000/svg" width="100%" height="100%" viewBox="0 0 24 24">
  <path d="M1.01301075,4.01419355 L22.9875806,4.01419355 L22.9875806,6.61634409 L1.01301075,6.61634409 L1.01301075,4.01419355 Z M1.01301075,17.7482258 L22.9875806,17.7482258 L22.9875806,20.3503763 L1.01301075,20.3503763 L1.01301075,17.7482258 Z M1.01301075,10.8815054 L22.9875806,10.8815054 L22.9875806,13.4836559 L1.01301075,13.4836559 L1.01301075,10.8815054 Z" />
</svg>

<?xml version="1.0" encoding="UTF-8"?><svg viewBox="0 0 24 24" xmlns="http://www.w3.org/2000/svg"><path d="m1.013 4.0142h21.975v2.6022h-21.975v-2.6022zm0 13.734h21.975v2.6022h-21.975v-2.6022zm0-6.8667h21.975v2.6022h-21.975v-2.6022z"/></svg>
